; HEADER_BLOCK_START
; generated by OrcaSlicer 1.9.0 on 2024-01-12 at 21:40:42
; total layer number: 30
; filament_density: 1.24
; filament_diameter: 1.75
; max_z_height: 6.00
; HEADER_BLOCK_END

; THUMBNAIL_BLOCK_START

;
; THUMBNAIL_BLOCK_END

; external perimeters extrusion width = 0.45mm
; perimeters extrusion width = 0.45mm
; infill extrusion width = 0.45mm
; solid infill extrusion width = 0.45mm
; top infill extrusion width = 0.40mm

; EXECUTABLE_BLOCK_START
M73 P0 R14
M201 X10000 Y10000 Z500 E5000
M203 X500 Y500 Z10 E60
M204 P10000 R1000 T10000
M205 X8.00 Y8.00 Z0.40 E5.00 ; sets the jerk limits, mm/sec
;TYPE:Custom
G90 ; use absolute coordinates
M83 ; extruder relative mode
M204 S10000 T1000
M104 S245 ; set extruder temp
M140 S70 ; set bed temp
G28 ; home all
G1 Y1.0 Z10 F1000 ; move print head up
M190 S70 ; wait for bed temp
M109 S245 ; wait for extruder temp
G92 E0.0
; initial load
G1 X205.0 E19 F1000
G1 Y1.6
M73 P1 R14
G1 X5.0 E19 F1000
G92 E0.0
; intro line
G1 Y2.0 Z10 F1000
M73 P2 R13
G1 X65.0 E9.0 F1000
G1 X105.0 E12.5 F1000
G92 E0.0
G90
G21
M83 ; use relative distances for extrusion
; filament start gcode
M106 S0
;LAYER_CHANGE
;Z:0.2
;HEIGHT:0.2
;BEFORE_LAYER_CHANGE
;0.2
G92 E0

M73 P3 R13
G1 E-.9 F2700
;AFTER_LAYER_CHANGE
;0.2
;_SET_FAN_SPEED_CHANGING_LAYER
M204 S300
G1 Z.4 F7200
G1 X-23.572 Y19.47
G1 Z.4
G1 Z.2
G1 E.9 F2100
;TYPE:Skirt
;WIDTH:0.45
G1 F3000
G1 X-38.012 Y1.987 E.75217
G1 X-40.015 Y-.709 E.11141
M73 P4 R13
G1 X-41.295 Y-2.904 E.0843
G1 X-42.262 Y-4.972 E.07573
G1 X-43.316 Y-8.014 E.10681
G1 X-43.884 Y-10.474 E.08373
G1 X-44.192 Y-12.713 E.07496
G1 X-44.31 Y-15.363 E.088
G1 X-44.087 Y-18.681 E.11032
G1 X-43.683 Y-20.984 E.07756
G1 X-43.125 Y-23.089 E.07222
G1 X-42.364 Y-25.216 E.07494
G1 X-41.226 Y-27.641 E.08887
G1 X-40.758 Y-28.472 E.03163
G1 X-40.257 Y-29.157 E.02816
G1 X-39.228 Y-30.137 E.04714
G1 X-37.903 Y-31.028 E.05294
G1 X-36.081 Y-31.943 E.06765
G1 X-33.881 Y-32.79 E.07818
G1 X-31.157 Y-33.587 E.09418
G1 X-28.131 Y-34.22 E.10255
G1 X13.104 Y-41.115 E1.38683
G1 X15.272 Y-41.403 E.07255
G1 X17.722 Y-41.51 E.08132
G1 X20.727 Y-41.332 E.09987
G1 X23.178 Y-40.934 E.08238
G1 X25.652 Y-40.287 E.08481
G1 X27.789 Y-39.514 E.0754
G1 X30.069 Y-38.45 E.08344
G1 X32.105 Y-37.263 E.0782
G1 X34.552 Y-35.484 E.10035
G1 X36.441 Y-33.784 E.0843
G1 X38.114 Y-31.959 E.08214
G1 X39.443 Y-30.221 E.07256
G1 X40.613 Y-28.391 E.07206
G1 X41.107 Y-27.264 E.04081
G1 X41.421 Y-25.709 E.0526
G1 X41.474 Y-23.896 E.06017
G1 X41.244 Y-21.521 E.07917
G1 X40.765 Y-19.05 E.08351
G1 X40.128 Y-16.689 E.0811
G1 X39.372 Y-14.454 E.07826
G1 X24.439 Y25.455 E1.41351
G1 X23.392 Y27.753 E.08378
G1 X22.342 Y29.606 E.07063
G1 X21.567 Y30.785 E.04679
G1 X19.473 Y33.42 E.11166
G1 X18.473 Y34.467 E.04805
G1 X16.916 Y35.897 E.0701
G1 X14.285 Y37.859 E.10888
G1 X11.879 Y39.261 E.09235
G1 X8.827 Y40.599 E.11056
G1 X7.395 Y41.074 E.05005
G1 X5.532 Y41.564 E.06391
G1 X3.454 Y41.942 E.07004
G1 X2.032 Y42.102 E.04749
G1 X-.058 Y42.192 E.0694
G1 X-1.281 Y42.056 E.04081
G1 X-2.251 Y41.768 E.03358
G1 X-3.322 Y41.294 E.03884
G1 X-4.381 Y40.69 E.04043
G1 X-5.579 Y39.874 E.0481
G1 X-7.74 Y38.099 E.09275
G1 X-10.296 Y35.543 E.11991
G1 X-23.547 Y19.501 E.69022
; printing object 3.5x2.5x3 CCW.stl id:94324003292464 copy 0
G1 E-.9 F2700
G1 Z.6 F7200
G1 X-4.578 Y-23.286 Z.6
G1 Z.2
G1 E.9 F2100
;TYPE:Inner wall
;WIDTH:0.449999
G1 F1800
G1 X-4.768 Y-23.663 E.01401
G1 X-5.036 Y-24.001 E.01432
G1 X-6.139 Y-25.097 E.05155
G1 X-5.646 Y-25.043 E.01644
G1 X-5.134 Y-25.088 E.01706
G1 X-4.573 Y-25.239 E.01928
G1 X-4.021 Y-25.487 E.02005
G1 X-3.43 Y-25.882 E.02359
G1 X-3.941 Y-24.834 E.03867
G1 X-4.378 Y-23.818 E.03668
G1 X-4.564 Y-23.324 E.01753
G1 E-.9 F2700
G1 Z.6 F7200
G1 X-5.115 Y-9.402 Z.6
G1 Z.2
G1 E.9 F2100
G1 F1800
G1 X-4.857 Y-9.233 E.01024
G1 X-4.446 Y-9.089 E.01443
G1 X-4.2 Y-9.057 E.00823
G1 X-3.7 Y-9.093 E.01663
G1 X-3.128 Y-9.289 E.02005
G1 X-2.639 Y-9.566 E.01866
G1 X-1.674 Y-9.968 E.03467
G1 X-.905 Y-10.144 E.02618
G1 X-.398 Y-10.198 E.0169
G1 X.106 Y-10.203 E.01674
G1 X.607 Y-10.159 E.01668
G1 X1.476 Y-9.971 E.02949
G1 X1.948 Y-9.8 E.01665
G1 X2.667 Y-9.436 E.02673
G1 X3.111 Y-9.14 E.01771
G1 X3.514 Y-8.808 E.01733
G1 X3.937 Y-8.368 E.02025
G1 X4.32 Y-7.914 E.0197
G1 X4.855 Y-7.434 E.02384
G1 X5.423 Y-7.155 E.02099
G1 X6.36 Y-6.904 E.03217
G1 X6.093 Y-6.772 E.00987
G1 X5.784 Y-6.515 E.01335
G1 X5.644 Y-6.347 E.00724
G1 X5.386 Y-5.836 E.01901
G1 X5.268 Y-5.232 E.0204
G1 X5.265 Y-4.632 E.01992
G1 X5.162 Y-3.83 E.02681
G1 X5.035 Y-3.276 E.01887
G1 X4.862 Y-2.793 E.01699
G1 X4.601 Y-2.256 E.01983
G1 X4.199 Y-1.627 E.02474
G1 X3.862 Y-1.219 E.01757
G1 X3.219 Y-.623 E.02906
G1 X2.794 Y-.32 E.01733
G1 X2.105 Y.05 E.02592
G1 X1.593 Y.252 E.01827
G1 X1.081 Y.394 E.01763
G1 X.213 Y.564 E.02933
G1 X-.328 Y.747 E.01896
G1 X-.854 Y1.099 E.021
G1 X-1.54 Y1.785 E.03217
G1 X-1.521 Y1.489 E.00983
G1 X-1.589 Y1.092 E.01336
G1 X-1.735 Y.743 E.01257
G1 X-2.009 Y.368 E.01539
G1 X-2.441 Y.004 E.01876
G1 X-2.96 Y-.3 E.01993
G1 X-3.677 Y-.847 E.02992
G1 X-4.019 Y-1.177 E.01578
G1 X-4.359 Y-1.578 E.01741
G1 X-4.811 Y-2.277 E.02764
G1 X-5.033 Y-2.732 E.01678
G1 X-5.215 Y-3.223 E.01738
G1 X-5.365 Y-3.832 E.02078
G1 X-5.455 Y-4.531 E.02339
G1 X-5.46 Y-5.062 E.01761
G1 X-5.354 Y-5.922 E.02874
G1 X-5.22 Y-6.436 E.01763
G1 X-4.945 Y-7.228 E.0278
G1 X-4.822 Y-7.833 E.02049
G1 X-4.863 Y-8.464 E.021
G1 X-5.105 Y-9.363 E.03087
G1 E-.9 F2700
G1 Z.6 F7200
G1 X-3.969 Y-4.746 Z.6
M73 P5 R13
G1 Z.2
G1 E.9 F2100
G1 F1800
G1 X-3.975 Y-4.918 E.00571
G1 X-3.894 Y-5.63 E.02376
G1 X-3.607 Y-6.491 E.03013
G1 X-3.3 Y-6.995 E.01957
G1 X-3.031 Y-7.378 E.01554
G1 X-2.47 Y-7.909 E.02559
G1 X-1.893 Y-8.259 E.02239
G1 X-1.557 Y-8.434 E.01258
G1 X-.862 Y-8.643 E.02406
G1 X-.281 Y-8.695 E.01936
G1 X.189 Y-8.708 E.01559
G1 X.949 Y-8.575 E.02559
G1 X1.702 Y-8.265 E.02701
G1 X2.211 Y-7.959 E.01971
G1 X2.748 Y-7.456 E.02439
G1 X2.939 Y-7.25 E.00933
G1 X3.377 Y-6.57 E.02682
G1 X3.694 Y-5.655 E.03213
G1 X3.779 Y-4.935 E.02406
G1 X3.694 Y-4.029 E.03017
G1 X3.471 Y-3.363 E.02331
G1 X3.334 Y-3.034 E.01181
G1 X2.909 Y-2.391 E.02559
G1 X2.527 Y-2.008 E.01795
G1 X2.18 Y-1.702 E.01532
G1 X1.514 Y-1.313 E.02559
G1 X1.001 Y-1.12 E.01818
G1 X.187 Y-.972 E.02746
G1 X-.355 Y-.99 E.01797
G1 X-.862 Y-1.038 E.0169
G1 X-1.557 Y-1.246 E.02406
G1 X-2.167 Y-1.578 E.02302
G1 X-2.47 Y-1.771 E.01195
G1 X-3.031 Y-2.302 E.02559
G1 X-3.341 Y-2.748 E.01803
G1 X-3.607 Y-3.189 E.01709
G1 X-3.864 Y-3.916 E.02558
G1 X-3.967 Y-4.686 E.02578
G1 X-3.967 Y-4.706 E.00066
G1 X-3.556 Y-4.82 F7200
;TYPE:Outer wall
G1 F1800
G1 X-3.525 Y-5.278 E.01524
G1 X-3.48 Y-5.628 E.01171
G1 X-3.222 Y-6.358 E.02567
G1 X-2.782 Y-7.046 E.02709
G1 X-2.379 Y-7.434 E.01854
G1 X-2.152 Y-7.642 E.01022
G1 X-1.483 Y-8.026 E.02559
G1 X-.782 Y-8.242 E.02432
G1 X-.255 Y-8.289 E.01755
G1 X.119 Y-8.307 E.01241
G1 X.879 Y-8.174 E.02559
G1 X1.54 Y-7.892 E.02383
G1 X1.985 Y-7.62 E.01732
G1 X2.466 Y-7.163 E.02201
G1 X2.762 Y-6.777 E.01613
G1 X3.009 Y-6.396 E.01506
G1 X3.279 Y-5.653 E.02624
G1 X3.35 Y-5.1 E.01849
G1 X3.371 Y-4.809 E.00968
G1 X3.289 Y-4.071 E.02464
G1 X3.089 Y-3.501 E.02002
G1 X2.995 Y-3.259 E.00863
G1 X2.569 Y-2.615 E.02559
G1 X2.012 Y-2.081 E.0256
G1 X1.274 Y-1.648 E.0284
G1 X.758 Y-1.483 E.01796
G1 X.115 Y-1.373 E.02165
G1 X-.699 Y-1.419 E.02705
G1 X-1.483 Y-1.654 E.02712
G1 X-2.152 Y-2.038 E.02559
G1 X-2.698 Y-2.548 E.02478
G1 X-2.999 Y-2.97 E.0172
G1 X-3.263 Y-3.437 E.01781
G1 X-3.48 Y-4.052 E.0216
G1 X-3.562 Y-4.732 E.02275
G1 X-3.559 Y-4.78 E.00159
G1 E-.9 F2700
G1 Z.6 F7200
G1 X18.094 Y.47 Z.6
G1 Z.2
G1 E.9 F2100
;TYPE:Inner wall
G1 F1800
G1 X18.582 Y.525 E.01629
G1 X18.965 Y.464 E.01289
G1 X20.458 Y.059 E.0513
G1 X20.266 Y.321 E.01078
G1 X19.942 Y.957 E.02367
G1 X19.8 Y1.515 E.0191
G1 X19.743 Y2.082 E.01891
G1 X19.79 Y2.798 E.02379
G1 X19.321 Y2.098 E.02794
G1 X18.806 Y1.378 E.02936
G1 X18.118 Y.501 E.03696
G1 E-.9 F2700
G1 Z.6 F7200
G1 X-5.022 Y-9.887 Z.6
G1 Z.2
G1 E.9 F2100
;TYPE:Outer wall
;WIDTH:0.476791
G1 F1800
G1 X-5.121 Y-10.073 E.00745
;WIDTH:0.503582
G1 X-5.239 Y-10.293 E.0094
G1 X-5.373 Y-11.003 E.02712
;WIDTH:0.506389
G1 X-5.569 Y-12.343 E.05114
;WIDTH:0.509375
G1 X-5.661 Y-13.352 E.0385
;WIDTH:0.512196
G1 X-5.709 Y-14.341 E.03787
;WIDTH:0.514862
G1 X-5.715 Y-15.323 E.03777
;WIDTH:0.521087
G1 X-5.674 Y-16.301 E.03814
G1 X-5.591 Y-17.394 E.04269
;WIDTH:0.522009
G1 X-5.484 Y-18.259 E.03403
;WIDTH:0.524046
G1 X-5.324 Y-19.228 E.03852
;WIDTH:0.526376
G1 X-5.094 Y-20.321 E.04399
;WIDTH:0.527664
G1 X-4.872 Y-21.19 E.03542
;WIDTH:0.533156
G1 X-4.483 Y-22.471 E.0535
G1 X-4.34 Y-22.807 E.01458
;WIDTH:0.491578
G1 X-4.197 Y-23.143 E.01334
;WIDTH:0.449999
G1 X-3.997 Y-23.675 E.01886
G1 X-3.567 Y-24.673 E.03605
G1 X-3.093 Y-25.65 E.03603
;WIDTH:0.490408
G1 X-2.939 Y-25.98 E.01327
;WIDTH:0.530817
G1 X-2.785 Y-26.31 E.01447
G1 X-2.255 Y-27.218 E.0418
;WIDTH:0.529138
G1 X-1.665 Y-28.131 E.04307
;WIDTH:0.526669
G1 X-1.047 Y-28.999 E.042
G1 X-.48 Y-29.722 E.03622
;WIDTH:0.526465
G1 X-.357 Y-29.876 E.00776
;WIDTH:0.522484
G1 X.344 Y-30.689 E.04195
;WIDTH:0.523602
G1 X1.004 Y-31.388 E.03767
G1 X1.661 Y-32.029 E.03596
;WIDTH:0.523119
G1 X2.439 Y-32.731 E.041
;WIDTH:0.521328
G1 X3.351 Y-33.478 E.04595
;WIDTH:0.517843
G1 X4.084 Y-34.026 E.03544
;WIDTH:0.516781
G1 X4.838 Y-34.547 E.03538
;WIDTH:0.512893
G1 X5.767 Y-35.128 E.04195
;WIDTH:0.511738
G1 X6.762 Y-35.689 E.04365
;WIDTH:0.508655
G1 X7.258 Y-35.95 E.02126
;WIDTH:0.500976
G1 X8.034 Y-36.325 E.03218
;WIDTH:0.498923
G1 X8.555 Y-36.554 E.02113
G1 X9.509 Y-36.937 E.03821
;WIDTH:0.496899
G1 X9.984 Y-37.115 E.01876
;WIDTH:0.488353
G1 X10.975 Y-37.441 E.03785
;WIDTH:0.486925
G1 X11.985 Y-37.725 E.03796
;WIDTH:0.478815
G1 X13.007 Y-37.964 E.03727
;WIDTH:0.474458
G1 X14.038 Y-38.156 E.0369
;WIDTH:0.468027
G1 X15.288 Y-38.326 E.04371
;WIDTH:0.464207
G1 X16.267 Y-38.414 E.03373
;WIDTH:0.458697
G1 X17.245 Y-38.459 E.03316
;WIDTH:0.451538
G1 X18.612 Y-38.453 E.04553
;WIDTH:0.448025
G1 X19.587 Y-38.404 E.03222
;WIDTH:0.442013
G1 X20.407 Y-38.328 E.0268
;WIDTH:0.437885
G1 X21.521 Y-38.183 E.03615
;WIDTH:0.429291
G1 X22.473 Y-38.015 E.03044
;WIDTH:0.423663
G1 X23.412 Y-37.807 E.02984
;WIDTH:0.414997
G1 X24.784 Y-37.434 E.04311
;WIDTH:0.411244
G1 X25.699 Y-37.136 E.02889
;WIDTH:0.404797
G1 X26.594 Y-36.803 E.02815
;WIDTH:0.398429
G1 X27.467 Y-36.437 E.02744
;WIDTH:0.392142
G1 X28.317 Y-36.038 E.02672
;WIDTH:0.382654
G1 X29.144 Y-35.612 E.02574
;WIDTH:0.380844
G1 X30.486 Y-34.826 E.04284
;WIDTH:0.374879
G1 X31.336 Y-34.27 E.02748
;WIDTH:0.3668
G1 X32.158 Y-33.677 E.02673
;WIDTH:0.360916
G1 X32.949 Y-33.053 E.02611
;WIDTH:0.354849
G1 X33.77 Y-32.344 E.02757
;WIDTH:0.344702
G1 X34.441 Y-31.712 E.02268
;WIDTH:0.343234
G1 X35.138 Y-31 E.02438
;WIDTH:0.337684
G1 X35.606 Y-30.484 E.01674
;WIDTH:0.329808
G1 X36.409 Y-29.526 E.02922
;WIDTH:0.327212
G1 X36.414 Y-29.52 E.00018
;WIDTH:0.327088
G1 X37.135 Y-28.555 E.0279
;WIDTH:0.322137
G1 X37.514 Y-28 E.01528
;WIDTH:0.320227
G1 X38.174 Y-26.946 E.02812
;WIDTH:0.314326
G1 X38.391 Y-26.447 E.01203
G1 X38.544 Y-25.831 E.01403
;WIDTH:0.31775
G1 X38.613 Y-25.222 E.01373
;WIDTH:0.321194
G1 X38.638 Y-24.523 E.01586
;WIDTH:0.323566
G1 X38.62 Y-23.983 E.01235
;WIDTH:0.333145
G1 X38.576 Y-23.445 E.01277
;WIDTH:0.346388
G1 X38.511 Y-22.886 E.01391
;WIDTH:0.36823
G1 X38.357 Y-21.935 E.02556
;WIDTH:0.36834
G1 X38.336 Y-21.813 E.00328
;WIDTH:0.394444
G1 X38.106 Y-20.729 E.03175
;WIDTH:0.394726
G1 X38.097 Y-20.693 E.00106
;WIDTH:0.417871
G1 X37.85 Y-19.717 E.03076
;WIDTH:0.418247
G1 X37.826 Y-19.626 E.00287
;WIDTH:0.44143
G1 X37.498 Y-18.505 E.03794
;WIDTH:0.452086
G1 X37.409 Y-18.227 E.00972
;WIDTH:0.47138
G1 X37.055 Y-17.155 E.03941
;WIDTH:0.491925
G1 X36.723 Y-16.253 E.03518
;WIDTH:0.495574
G1 X36.546 Y-15.782 E.01857
;WIDTH:0.508445
G1 X36.332 Y-15.251 E.02169
;WIDTH:0.51465
G1 X36.104 Y-14.694 E.02316
;WIDTH:0.51943
G1 X36.03 Y-14.526 E.00711
;WIDTH:0.533603
G1 X35.576 Y-13.51 E.04451
;WIDTH:0.541213
G1 X35.242 Y-12.804 E.03169
;WIDTH:0.543217
G1 X34.911 Y-12.137 E.03038
;WIDTH:0.553243
G1 X34.322 Y-11.034 E.05199
;WIDTH:0.555387
G1 X34.001 Y-10.473 E.02698
;WIDTH:0.557375
G1 X33.135 Y-9.076 E.0689
;WIDTH:0.554177
G1 X32.621 Y-8.332 E.03769
;WIDTH:0.552325
G1 X32.303 Y-7.888 E.02267
;WIDTH:0.543117
G1 X31.594 Y-6.982 E.04688
;WIDTH:0.536743
G1 X31.003 Y-6.304 E.0362
;WIDTH:0.530148
G1 X30.501 Y-5.767 E.02919
;WIDTH:0.521997
G1 X29.823 Y-5.107 E.03694
;WIDTH:0.509896
G1 X29.337 Y-4.679 E.02465
;WIDTH:0.507552
G1 X28.797 Y-4.235 E.02646
;WIDTH:0.501044
G1 X28.106 Y-3.727 E.03201
;WIDTH:0.498207
G1 X27.544 Y-3.344 E.02525
;WIDTH:0.49723
G1 X26.666 Y-2.817 E.03789
;WIDTH:0.499466
G1 X25.494 Y-2.203 E.04921
;WIDTH:0.501839
G1 X24.905 Y-1.931 E.02428
;WIDTH:0.509888
G1 X24.326 Y-1.681 E.024
;WIDTH:0.517597
G1 X23.178 Y-1.228 E.04774
;WIDTH:0.523391
G1 X22.194 Y-.879 E.04086
;WIDTH:0.524599
G1 X21.129 Y-.528 E.04404
G1 X20.884 Y-.474 E.00982
;WIDTH:0.487299
G1 X20.64 Y-.42 E.00906
;WIDTH:0.449999
G1 X20.036 Y-.241 E.02091
G1 X18.861 Y.07 E.04031
G1 X18.454 Y.12 E.01361
G1 X18.105 Y.041 E.01186
;WIDTH:0.492522
G1 X17.925 Y-.046 E.00733
;WIDTH:0.535045
G1 X17.746 Y-.134 E.00802
G1 X17.129 Y-.79 E.0361
;WIDTH:0.523084
G1 X16.347 Y-1.578 E.04343
;WIDTH:0.522015
G1 X15.677 Y-2.194 E.03555
;WIDTH:0.526511
G1 X15.289 Y-2.536 E.02038
G1 X14.639 Y-3.069 E.03313
;WIDTH:0.519636
G1 X13.887 Y-3.642 E.03673
;WIDTH:0.519335
G1 X13.789 Y-3.711 E.00464
;WIDTH:0.517013
G1 X12.964 Y-4.282 E.03876
;WIDTH:0.515559
G1 X12.091 Y-4.831 E.03975
;WIDTH:0.51383
G1 X11.194 Y-5.342 E.03959
;WIDTH:0.511666
G1 X10.277 Y-5.813 E.03938
;WIDTH:0.509385
G1 X9.355 Y-6.236 E.03855
;WIDTH:0.507027
G1 X8.422 Y-6.617 E.03813
;WIDTH:0.504547
G1 X7.474 Y-6.959 E.03791
;WIDTH:0.501904
G1 X7.189 Y-7.061 E.01129
;WIDTH:0.475952
G1 X6.905 Y-7.163 E.01065
;WIDTH:0.449999
G1 X6.406 Y-7.313 E.0173
G1 X5.528 Y-7.548 E.03013
G1 X5.044 Y-7.795 E.01804
G1 X4.602 Y-8.208 E.02005
G1 X4.25 Y-8.628 E.0182
G1 X3.799 Y-9.098 E.02159
G1 X3.383 Y-9.447 E.01802
G1 X2.964 Y-9.736 E.01691
G1 X2.527 Y-9.983 E.01663
G1 X2.071 Y-10.192 E.01663
G1 X1.596 Y-10.361 E.01674
G1 X1.064 Y-10.495 E.01818
G1 X.412 Y-10.587 E.02186
G1 X-.335 Y-10.608 E.02479
G1 X-.881 Y-10.562 E.01815
G1 X-1.417 Y-10.46 E.0181
G1 X-1.924 Y-10.312 E.01753
G1 X-2.84 Y-9.92 E.03305
G1 X-3.329 Y-9.643 E.01866
G1 X-3.73 Y-9.499 E.01412
G1 X-4.23 Y-9.463 E.01663
G1 X-4.723 Y-9.617 E.01712
G1 X-5.003 Y-9.852 E.01213
G1 E-.9 F2700
G1 Z.6 F7200
G1 X-13.764 Y8.25 Z.6
M73 P6 R13
G1 Z.2
G1 E.9 F2100
;TYPE:Inner wall
G1 F1800
G1 X-13.857 Y8.335 E.00417
G1 X-14.159 Y8.822 E.01902
G1 X-14.5 Y10.032 E.04171
G1 X-14.619 Y10.523 E.01674
G1 X-14.825 Y10.06 E.01679
G1 X-15.156 Y9.597 E.01888
G1 X-15.537 Y9.227 E.01763
G1 X-16.017 Y8.881 E.01963
G1 X-16.66 Y8.564 E.02376
G1 X-15.29 Y8.466 E.04554
G1 X-14.547 Y8.371 E.02484
G1 X-13.803 Y8.257 E.02498
G1 E-.9 F2700
G1 Z.6 F7200
G1 X5.673 Y-4.862 Z.6
G1 Z.2
G1 E.9 F2100
;TYPE:Outer wall
G1 F1800
G1 X5.675 Y-5.23 E.0122
G1 X5.784 Y-5.75 E.01762
G1 X6.045 Y-6.202 E.01733
G1 X6.423 Y-6.497 E.01592
G1 X6.782 Y-6.59 E.01228
;WIDTH:0.475952
G1 X7.05 Y-6.559 E.00953
;WIDTH:0.501904
G1 X7.318 Y-6.527 E.0101
;WIDTH:0.503211
G1 X8.194 Y-6.211 E.03492
;WIDTH:0.506388
G1 X9.137 Y-5.825 E.03848
;WIDTH:0.509376
G1 X10.055 Y-5.402 E.0384
;WIDTH:0.512194
G1 X10.935 Y-4.949 E.03787
;WIDTH:0.51486
G1 X11.789 Y-4.463 E.03778
;WIDTH:0.517384
G1 X12.696 Y-3.892 E.04143
;WIDTH:0.517013
G1 X13.519 Y-3.321 E.0387
;WIDTH:0.522008
G1 X14.215 Y-2.795 E.03408
;WIDTH:0.526511
G1 X15.353 Y-1.844 E.05841
;WIDTH:0.52534
G1 X15.806 Y-1.429 E.02418
;WIDTH:0.527667
G1 X16.448 Y-.799 E.03552
;WIDTH:0.535045
G1 X17.385 Y.201 E.05492
G1 X17.58 Y.466 E.01321
;WIDTH:0.492522
G1 X17.776 Y.731 E.01207
;WIDTH:0.449999
G1 X18.162 Y1.201 E.0202
G1 X18.481 Y1.623 E.01753
G1 X19.314 Y2.805 E.04796
;WIDTH:0.491778
G1 X19.52 Y3.096 E.01306
;WIDTH:0.533557
G1 X19.727 Y3.387 E.01427
G1 X19.988 Y3.821 E.02023
;WIDTH:0.530201
G1 X20.404 Y4.563 E.03379
;WIDTH:0.528969
G1 X20.459 Y4.664 E.00457
;WIDTH:0.52761
G1 X20.918 Y5.578 E.0404
G1 X21.298 Y6.417 E.03636
;WIDTH:0.526624
