; HEADER_BLOCK_START
; generated by OrcaSlicer 1.9.0 on 2024-01-12 at 23:50:54
; total layer number: 73
; filament_density: 1.24
; filament_diameter: 1.75
; max_z_height: 14.60
; HEADER_BLOCK_END

; THUMBNAIL_BLOCK_START

;
; THUMBNAIL_BLOCK_END

; external perimeters extrusion width = 0.45mm
; perimeters extrusion width = 0.45mm
; infill extrusion width = 0.45mm
; solid infill extrusion width = 0.45mm
; top infill extrusion width = 0.40mm

; EXECUTABLE_BLOCK_START
M73 P0 R19
M201 X10000 Y10000 Z500 E5000
M203 X500 Y500 Z10 E60
M204 P10000 R1000 T10000
M205 X8.00 Y8.00 Z0.40 E5.00 ; sets the jerk limits, mm/sec
;TYPE:Custom
G90 ; use absolute coordinates
M83 ; extruder relative mode
M204 S10000 T1000
M104 S245 ; set extruder temp
G90
G21
M83 ; use relative distances for extrusion
; filament start gcode
M106 S0
;LAYER_CHANGE
;Z:0.2
;HEIGHT:0.2
;BEFORE_LAYER_CHANGE
;0.2
G92 E0

G1 E-.9 F2700
;AFTER_LAYER_CHANGE
;0.2
;_SET_FAN_SPEED_CHANGING_LAYER
M204 S300
G1 Z.4 F7200
G1 X.183 Y6.076
G1 Z.4
G1 Z.2
G1 E.9 F2100
;TYPE:Skirt
;WIDTH:0.45
G1 F3000
G1 X-.374 Y6.093 E.01848
G1 X-2.371 Y5.863 E.06671
G1 X-3.21 Y5.654 E.02868
G1 X-4.435 Y5.218 E.04312
G1 X-5.405 Y4.753 E.03569
G1 X-6.341 Y4.185 E.03631
G1 X-7.182 Y3.556 E.03485
G1 X-8.123 Y2.683 E.04256
G1 X-8.828 Y1.878 E.03551
G1 X-9.474 Y.972 E.0369
G1 X-9.986 Y.087 E.03391
G1 X-10.443 Y-.913 E.03649
G1 X-10.789 Y-1.923 E.0354
G1 X-11.047 Y-2.999 E.03671
G1 X-11.194 Y-4.084 E.03633
G1 X-11.229 Y-5.373 E.04277
G1 X-10.996 Y-7.328 E.0653
G1 X-10.666 Y-8.546 E.04186
G1 X-10.27 Y-9.567 E.03634
G1 X-9.796 Y-10.509 E.03498
G1 X-9.21 Y-11.437 E.0364
G1 X-8.549 Y-12.284 E.03565
G1 X-7.778 Y-13.097 E.03715
G1 X-7.066 Y-13.721 E.03142
G1 X-6.025 Y-14.46 E.04236
G1 X-5.208 Y-14.927 E.03119
G1 X-4.002 Y-15.462 E.04378
G1 X-2.958 Y-15.795 E.03632
G1 X-1.911 Y-16.018 E.03553
G1 X-.792 Y-16.145 E.03735
G1 X.278 Y-16.159 E.03548
G1 X2.289 Y-15.905 E.06725
G1 X3.343 Y-15.621 E.03621
G1 X4.407 Y-15.213 E.0378
G1 X5.468 Y-14.672 E.03951
G1 X6.264 Y-14.166 E.0313
G1 X6.971 Y-13.632 E.02937
G1 X7.911 Y-12.76 E.04255
G1 X8.618 Y-11.955 E.03555
G1 X9.267 Y-11.048 E.03697
G1 X9.78 Y-10.161 E.03401
G1 X10.238 Y-9.158 E.03656
G1 X10.585 Y-8.145 E.03551
G1 X10.844 Y-7.065 E.03685
G1 X10.99 Y-5.978 E.0364
G1 X11.024 Y-4.688 E.04278
G1 X10.79 Y-2.734 E.0653
G1 X10.459 Y-1.515 E.04188
G1 X10.062 Y-.495 E.03631
G1 X9.559 Y.492 E.03676
G1 X8.989 Y1.389 E.03525
G1 X8.311 Y2.255 E.03649
G1 X7.586 Y3.016 E.03485
G1 X6.767 Y3.725 E.03595
G1 X5.789 Y4.409 E.03959
G1 X3.932 Y5.341 E.06891
G1 X2.763 Y5.722 E.04077
G1 X1.846 Y5.924 E.03116
G1 X.825 Y6.057 E.03417
G1 X.223 Y6.075 E.01997
; printing object 3.5x2.5x3 CCW_outward_16deg_transformed.stl id:34101 copy 0
G1 E-.9 F2700
G1 Z.6 F7200
G1 X.148 Y3.475 Z.6
G1 Z.2
G1 E.9 F2100
;TYPE:Brim
G1 F1800
G1 X-.237 Y3.486 E.01278
G1 X-.91 Y3.449 E.02235
G1 X-1.768 Y3.323 E.02878
G1 X-2.432 Y3.163 E.02264
G1 X-2.899 Y3.015 E.01627
G1 X-3.33 Y2.852 E.01526
G1 X-4.12 Y2.48 E.02896
G1 X-4.529 Y2.247 E.01561
G1 X-4.919 Y1.995 E.01541
G1 X-5.485 Y1.572 E.02346
G1 X-5.834 Y1.272 E.01528
G1 X-6.176 Y.942 E.01575
G1 X-6.752 Y.294 E.02876
G1 X-7.032 Y-.075 E.01537
G1 X-7.305 Y-.48 E.01619
G1 X-7.645 Y-1.069 E.02256
G1 X-7.854 Y-1.495 E.01577
G1 X-8.036 Y-1.924 E.01545
G1 X-8.31 Y-2.743 E.02865
G1 X-8.472 Y-3.429 E.02338
G1 X-8.546 Y-3.884 E.0153
G1 X-8.597 Y-4.355 E.01573
G1 X-8.622 Y-5.222 E.02874
G1 X-8.58 Y-5.901 E.02257
G1 X-8.517 Y-6.385 E.0162
G1 X-8.432 Y-6.837 E.01527
G1 X-8.204 Y-7.677 E.02886
G1 X-8.046 Y-8.121 E.01565
G1 X-7.866 Y-8.549 E.0154
G1 X-7.547 Y-9.184 E.02356
G1 X-7.311 Y-9.581 E.01531
G1 X-7.046 Y-9.975 E.01577
G1 X-6.507 Y-10.657 E.02883
G1 X-6.038 Y-11.15 E.02259
G1 X-5.471 Y-11.654 E.02515
G1 X-5.107 Y-11.933 E.0152
G1 X-4.707 Y-12.206 E.01608
G1 X-4.059 Y-12.583 E.02488
G1 X-3.586 Y-12.813 E.01745
G1 X-3.134 Y-13 E.01622
G1 X-2.698 Y-13.153 E.01532
G1 X-2.242 Y-13.284 E.01574
G1 X-1.394 Y-13.459 E.02872
G1 X-.719 Y-13.535 E.02253
G1 X.093 Y-13.555 E.02693
G1 X.978 Y-13.489 E.02945
G1 X1.635 Y-13.378 E.02212
G1 X2.488 Y-13.154 E.02925
G1 X2.939 Y-12.996 E.01584
G1 X3.394 Y-12.806 E.01636
G1 X4.095 Y-12.452 E.02606
G1 X4.71 Y-12.069 E.02401
G1 X5.275 Y-11.647 E.0234
G1 X5.625 Y-11.346 E.0153
G1 X5.967 Y-11.018 E.01572
G1 X6.544 Y-10.37 E.02879
G1 X6.824 Y-10.001 E.01537
G1 X7.098 Y-9.594 E.01626
G1 X7.44 Y-9.004 E.02262
G1 X7.649 Y-8.577 E.0158
G1 X7.831 Y-8.147 E.01548
G1 X8.107 Y-7.326 E.02874
G1 X8.268 Y-6.636 E.02348
G1 X8.343 Y-6.181 E.01529
G1 X8.393 Y-5.708 E.01579
G1 X8.418 Y-4.842 E.02874
G1 X8.375 Y-4.162 E.0226
G1 X8.311 Y-3.678 E.0162
G1 X8.226 Y-3.227 E.01524
G1 X7.998 Y-2.386 E.02889
G1 X7.839 Y-1.943 E.01562
G1 X7.659 Y-1.515 E.0154
G1 X7.342 Y-.886 E.02338
G1 X6.885 Y-.156 E.02854
G1 X6.606 Y.221 E.01555
G1 X6.305 Y.584 E.01566
G1 X5.82 Y1.094 E.02333
G1 X5.475 Y1.409 E.01552
G1 X5.118 Y1.701 E.01528
G1 X4.475 Y2.153 E.02607
G1 X3.821 Y2.53 E.02505
G1 X3.388 Y2.74 E.01595
G1 X2.936 Y2.927 E.01623
G1 X2.5 Y3.08 E.01535
G1 X2.044 Y3.212 E.01574
G1 X1.312 Y3.368 E.02484
G1 X.519 Y3.464 E.02648
G1 X.188 Y3.474 E.01099
G1 X.176 Y3.067 F7200
G1 F1800
G1 X-.237 Y3.078 E.01371
G1 X-.874 Y3.042 E.02118
G1 X-1.696 Y2.921 E.02756
G1 X-2.33 Y2.768 E.02163
G1 X-3.175 Y2.475 E.02967
G1 X-3.939 Y2.115 E.02801
G1 X-4.68 Y1.665 E.02875
G1 X-5.236 Y1.249 E.02304
G1 X-5.886 Y.657 E.02917
G1 X-6.443 Y.029 E.02783
G1 X-6.955 Y-.689 E.02928
G1 X-7.289 Y-1.267 E.02213
G1 X-7.652 Y-2.061 E.02896
G1 X-7.917 Y-2.849 E.02759
G1 X-8.073 Y-3.516 E.02273
G1 X-8.19 Y-4.375 E.02875
G1 X-8.214 Y-5.22 E.02805
G1 X-8.174 Y-5.869 E.02156
G1 X-8.033 Y-6.751 E.02961
G1 X-7.813 Y-7.563 E.02792
G1 X-7.499 Y-8.372 E.02877
G1 X-7.185 Y-8.995 E.02314
G1 X-6.722 Y-9.729 E.0288
G1 X-6.203 Y-10.385 E.02777
G1 X-5.751 Y-10.861 E.02176
G1 X-5.205 Y-11.344 E.02418
G1 X-4.486 Y-11.864 E.02943
G1 X-3.863 Y-12.225 E.02389
G1 X-3.422 Y-12.44 E.01628
G1 X-2.992 Y-12.618 E.01545
G1 X-2.152 Y-12.887 E.02924
G1 X-1.335 Y-13.055 E.02767
G1 X-.686 Y-13.129 E.02168
G1 X.088 Y-13.147 E.02569
G1 X.923 Y-13.084 E.02777
G1 X1.555 Y-12.978 E.02125
G1 X2.374 Y-12.763 E.02808
G1 X2.797 Y-12.615 E.01486
G1 X3.22 Y-12.438 E.0152
G1 X3.891 Y-12.099 E.02494
G1 X4.484 Y-11.729 E.02319
G1 X5.026 Y-11.324 E.02246
G1 X5.677 Y-10.732 E.02918
G1 X6.234 Y-10.104 E.02785
G1 X6.748 Y-9.385 E.02934
G1 X7.083 Y-8.806 E.02219
G1 X7.447 Y-8.01 E.02901
G1 X7.713 Y-7.219 E.02767
G1 X7.87 Y-6.549 E.02284
G1 X7.986 Y-5.689 E.02881
G1 X8.01 Y-4.843 E.02805
G1 X7.969 Y-4.194 E.02159
G1 X7.828 Y-3.313 E.02959
G1 X7.606 Y-2.501 E.02794
G1 X7.292 Y-1.693 E.02875
G1 X6.984 Y-1.081 E.02273
G1 X6.545 Y-.382 E.02737
G1 X6.003 Y.31 E.02917
G1 X5.532 Y.806 E.02267
G1 X4.876 Y1.374 E.0288
G1 X4.26 Y1.806 E.02494
G1 X3.635 Y2.168 E.02398
G1 X3.215 Y2.371 E.01544
G1 X2.373 Y2.693 E.02994
G1 X1.941 Y2.818 E.01491
G1 X1.25 Y2.965 E.02343
G1 X.494 Y3.057 E.02525
G1 X.216 Y3.065 E.00923
G1 X.205 Y2.658 F7200
G1 F1800
G1 X-.236 Y2.671 E.01463
G1 X-.838 Y2.636 E.02001
G1 X-1.624 Y2.52 E.02634
G1 X-2.221 Y2.375 E.02037
G1 X-3.027 Y2.095 E.02832
G1 X-3.751 Y1.752 E.02657
G1 X-4.447 Y1.33 E.02699
G1 X-4.981 Y.931 E.02212
G1 X-5.6 Y.365 E.02782
G1 X-6.127 Y-.23 E.02639
G1 X-6.609 Y-.905 E.02751
G1 X-6.929 Y-1.459 E.02122
G1 X-7.275 Y-2.217 E.02762
G1 X-7.523 Y-2.956 E.02585
G1 X-7.674 Y-3.596 E.02183
G1 X-7.784 Y-4.415 E.0274
G1 X-7.807 Y-5.219 E.02669
G1 X-7.768 Y-5.83 E.0203
G1 X-7.633 Y-6.671 E.02827
G1 X-7.423 Y-7.442 E.02648
G1 X-7.129 Y-8.201 E.027
G1 X-6.828 Y-8.799 E.02222
G1 X-6.392 Y-9.488 E.02703
G1 X-5.898 Y-10.114 E.02646
G1 X-5.464 Y-10.571 E.02092
G1 X-4.946 Y-11.03 E.02296
G1 X-4.259 Y-11.525 E.02808
G1 X-3.668 Y-11.868 E.02267
G1 X-3.258 Y-12.067 E.01512
G1 X-2.856 Y-12.234 E.01443
G1 X-2.055 Y-12.49 E.02792
G1 X-1.276 Y-12.652 E.02637
G1 X-.653 Y-12.722 E.02083
G1 X.084 Y-12.739 E.02444
G1 X.869 Y-12.68 E.0261
G1 X1.475 Y-12.578 E.02039
G1 X2.263 Y-12.37 E.02703
G1 X3.042 Y-12.071 E.02768
G1 X3.686 Y-11.746 E.02393
G1 X4.258 Y-11.39 E.02237
G1 X4.771 Y-11.006 E.02125
G1 X5.391 Y-10.441 E.02783
G1 X5.919 Y-9.845 E.02642
G1 X6.402 Y-9.169 E.02757
G1 X6.724 Y-8.613 E.02128
G1 X7.07 Y-7.854 E.02768
G1 X7.319 Y-7.113 E.02593
G1 X7.47 Y-6.47 E.02194
G1 X7.58 Y-5.649 E.02745
G1 X7.602 Y-4.845 E.02669
G1 X7.563 Y-4.233 E.02033
G1 X7.428 Y-3.393 E.02824
G1 X7.217 Y-2.622 E.0265
G1 X6.922 Y-1.864 E.02699
G1 X6.626 Y-1.276 E.02183
G1 X6.208 Y-.611 E.02606
G1 X5.698 Y.039 E.02741
G1 X5.255 Y.506 E.02137
G1 X4.629 Y1.049 E.02745
G1 X4.045 Y1.46 E.02369
G1 X3.448 Y1.806 E.02291
G1 X3.049 Y1.998 E.01469
G1 X2.238 Y2.309 E.0288
G1 X1.838 Y2.424 E.01383
G1 X1.188 Y2.562 E.02202
G1 X.469 Y2.65 E.02402
G1 X.245 Y2.657 E.00746
G1 X.233 Y2.249 F7200
G1 F1800
G1 X-.236 Y2.263 E.01554
G1 X-.802 Y2.23 E.01883
G1 X-1.551 Y2.119 E.02512
G1 X-2.111 Y1.982 E.01912
G1 X-2.879 Y1.715 E.02697
G1 X-3.564 Y1.39 E.02513
G1 X-4.214 Y.996 E.02523
G1 X-4.725 Y.613 E.02119
G1 X-5.314 Y.075 E.02646
G1 X-5.812 Y-.489 E.02497
G1 X-6.263 Y-1.121 E.02575
G1 X-6.569 Y-1.651 E.02032
G1 X-6.898 Y-2.372 E.02628
G1 X-7.129 Y-3.062 E.02412
G1 X-7.273 Y-3.676 E.02093
G1 X-7.378 Y-4.454 E.02605
G1 X-7.399 Y-5.218 E.02533
G1 X-7.362 Y-5.791 E.01904
G1 X-7.233 Y-6.592 E.02692
G1 X-7.034 Y-7.32 E.02505
G1 X-6.759 Y-8.029 E.02524
G1 X-6.47 Y-8.603 E.0213
G1 X-6.063 Y-9.247 E.02526
G1 X-5.594 Y-9.843 E.02516
G1 X-5.177 Y-10.282 E.02007
G1 X-4.686 Y-10.715 E.02173
G1 X-4.032 Y-11.186 E.02673
G1 X-3.469 Y-11.511 E.02158
G1 X-2.724 Y-11.848 E.02711
G1 X-1.957 Y-12.094 E.02672
G1 X-1.218 Y-12.248 E.02506
G1 X-.619 Y-12.316 E.01997
G1 X.079 Y-12.331 E.02319
G1 X.814 Y-12.276 E.02443
G1 X1.394 Y-12.179 E.01952
G1 X2.144 Y-11.98 E.02572
G1 X2.871 Y-11.701 E.02584
G1 X3.481 Y-11.394 E.02266
G1 X4.032 Y-11.051 E.02153
G1 X4.516 Y-10.688 E.02004
G1 X5.105 Y-10.149 E.02648
G1 X5.604 Y-9.585 E.02499
G1 X6.057 Y-8.953 E.0258
G1 X6.364 Y-8.421 E.02037
G1 X6.693 Y-7.699 E.02633
G1 X6.925 Y-7.007 E.02419
G1 X7.07 Y-6.39 E.02103
G1 X7.173 Y-5.623 E.02567
G1 X7.194 Y-4.847 E.02575
G1 X7.157 Y-4.273 E.01907
G1 X7.027 Y-3.473 E.02689
G1 X6.827 Y-2.744 E.02507
G1 X6.552 Y-2.035 E.02523
G1 X6.268 Y-1.472 E.02093
G1 X5.878 Y-.851 E.02433
G1 X5.394 Y-.232 E.02608
G1 X4.977 Y.207 E.02007
G1 X4.383 Y.723 E.02611
G1 X3.83 Y1.113 E.02243
G1 X3.261 Y1.444 E.02183
G1 X2.883 Y1.626 E.01393
G1 X2.104 Y1.924 E.02766
G1 X1.734 Y2.03 E.01274
G1 X1.126 Y2.159 E.02063
G1 X.444 Y2.243 E.02279
G1 X.273 Y2.248 E.0057
G1 X.261 Y1.841 F7200
G1 F1800
G1 X-.235 Y1.855 E.01646
G1 X-.766 Y1.824 E.01763
G1 X-1.478 Y1.717 E.0239
G1 X-2.001 Y1.589 E.01786
G1 X-2.73 Y1.335 E.02562
G1 X-3.376 Y1.028 E.0237
G1 X-3.99 Y.654 E.02386
G1 X-4.47 Y.295 E.01988
G1 X-5.027 Y-.216 E.02509
G1 X-5.497 Y-.748 E.02354
G1 X-5.917 Y-1.337 E.02399
G1 X-6.21 Y-1.843 E.0194
G1 X-6.52 Y-2.528 E.02494
G1 X-6.735 Y-3.168 E.0224
G1 X-6.873 Y-3.756 E.02003
G1 X-6.971 Y-4.494 E.02469
G1 X-6.991 Y-5.216 E.02397
G1 X-6.956 Y-5.751 E.01778
G1 X-6.833 Y-6.512 E.02557
G1 X-6.644 Y-7.198 E.02361
G1 X-6.388 Y-7.858 E.02349
G1 X-6.112 Y-8.407 E.02039
G1 X-5.733 Y-9.006 E.02351
G1 X-5.289 Y-9.572 E.02385
G1 X-4.89 Y-9.992 E.01922
G1 X-4.427 Y-10.4 E.02049
G1 X-3.805 Y-10.847 E.02538
G1 X-3.277 Y-11.151 E.02023
G1 X-2.584 Y-11.464 E.02524
G1 X-1.859 Y-11.698 E.02526
G1 X-1.159 Y-11.845 E.02374
G1 X-.587 Y-11.909 E.0191
G1 X.075 Y-11.923 E.02194
G1 X.759 Y-11.872 E.02277
G1 X1.314 Y-11.779 E.01865
G1 X2.024 Y-11.59 E.0244
G1 X2.7 Y-11.33 E.02402
G1 X3.277 Y-11.041 E.0214
G1 X3.806 Y-10.711 E.02069
G1 X4.26 Y-10.37 E.01882
G1 X4.819 Y-9.859 E.02513
G1 X5.289 Y-9.326 E.02357
G1 X5.711 Y-8.737 E.02404
G1 X6.004 Y-8.229 E.01946
G1 X6.316 Y-7.543 E.02499
G1 X6.531 Y-6.901 E.02246
G1 X6.67 Y-6.31 E.02013
G1 X6.767 Y-5.584 E.02432
G1 X6.787 Y-4.849 E.02439
G1 X6.751 Y-4.313 E.0178
G1 X6.627 Y-3.553 E.02555
G1 X6.438 Y-2.866 E.02364
G1 X6.182 Y-2.206 E.02348
G1 X5.91 Y-1.667 E.02003
G1 X5.547 Y-1.09 E.0226
G1 X5.088 Y-.502 E.02475
G1 X4.691 Y-.083 E.01916
G1 X4.136 Y.399 E.02438
G1 X3.615 Y.767 E.02118
G1 X3.074 Y1.081 E.02074
G1 X2.717 Y1.254 E.01317
G1 X1.97 Y1.539 E.02651
G1 X1.632 Y1.635 E.01167
G1 X1.064 Y1.756 E.01925
G1 X.419 Y1.836 E.02155
G1 X.301 Y1.84 E.00393
G1 X.289 Y1.433 F7200
G1 F1800
G1 X-.234 Y1.448 E.01737
G1 X-.729 Y1.418 E.01644
G1 X-1.405 Y1.316 E.02268
G1 X-1.891 Y1.197 E.0166
G1 X-2.581 Y.955 E.02427
G1 X-3.187 Y.666 E.02227
G1 X-3.767 Y.313 E.0225
G1 X-4.214 Y-.023 E.01856
G1 X-4.741 Y-.506 E.02372
G1 X-5.181 Y-1.007 E.02212
G1 X-5.571 Y-1.553 E.02224
G1 X-5.85 Y-2.035 E.01849
G1 X-6.143 Y-2.683 E.02359
G1 X-6.342 Y-3.274 E.02068
G1 X-6.473 Y-3.835 E.01912
G1 X-6.565 Y-4.532 E.02333
G1 X-6.583 Y-5.214 E.02261
G1 X-6.55 Y-5.711 E.01651
G1 X-6.433 Y-6.431 E.02423
G1 X-6.259 Y-7.064 E.02178
G1 X-6.018 Y-7.687 E.02215
G1 X-5.754 Y-8.211 E.01947
G1 X-5.404 Y-8.766 E.02176
G1 X-4.984 Y-9.301 E.02254
G1 X-4.603 Y-9.702 E.01836
G1 X-4.168 Y-10.085 E.01924
G1 X-3.579 Y-10.507 E.02403
G1 X-3.086 Y-10.791 E.01888
G1 X-2.443 Y-11.081 E.02338
G1 X-1.761 Y-11.302 E.0238
G1 X-1.1 Y-11.441 E.02242
G1 X-.554 Y-11.503 E.01822
G1 X.07 Y-11.516 E.02068
G1 X.704 Y-11.468 E.02112
G1 X1.233 Y-11.379 E.01777
G1 X1.893 Y-11.204 E.02264
G1 X2.53 Y-10.96 E.02265
G1 X3.073 Y-10.688 E.02012
G1 X3.58 Y-10.372 E.01984
G1 X4.004 Y-10.053 E.01759
G1 X4.532 Y-9.568 E.02379
M73 P1 R19
G1 X4.974 Y-9.067 E.02214
G1 X5.365 Y-8.521 E.02229
G1 X5.644 Y-8.037 E.01854
G1 X5.939 Y-7.388 E.02364
G1 X6.138 Y-6.795 E.02074
G1 X6.27 Y-6.231 E.01922
G1 X6.36 Y-5.545 E.02296
G1 X6.379 Y-4.851 E.02302
G1 X6.345 Y-4.354 E.01653
G1 X6.227 Y-3.634 E.0242
G1 X6.053 Y-3 E.0218
G1 X5.812 Y-2.378 E.02215
G1 X5.552 Y-1.863 E.01913
G1 X5.21 Y-1.32 E.02129
G1 X4.783 Y-.773 E.02301
G1 X4.405 Y-.374 E.01824
G1 X3.889 Y.074 E.02265
G1 X3.399 Y.421 E.01993
G1 X2.887 Y.719 E.01964
G1 X2.551 Y.882 E.0124
G1 X1.836 Y1.153 E.02536
G1 X1.529 Y1.241 E.01059
G1 X1.001 Y1.353 E.01789
G1 X.382 Y1.43 E.0207
G1 X.329 Y1.432 E.00176
G1 X.341 Y1.023 F7200
G1 F1800
G1 X-.924 Y.987 E.04197
G1 X-1.375 Y.906 E.01521
G1 X-2.013 Y.734 E.02192
G1 X-2.537 Y.533 E.0186
G1 X-3.038 Y.285 E.01854
G1 X-3.61 Y-.074 E.02242
G1 X-4.139 Y-.493 E.02238
G1 X-4.539 Y-.882 E.01851
G1 X-4.9 Y-1.307 E.01849
G1 X-5.252 Y-1.811 E.0204
G1 X-5.571 Y-2.386 E.02179
G1 X-5.792 Y-2.901 E.01862
G1 X-5.977 Y-3.483 E.02024
G1 X-6.106 Y-4.099 E.02089
G1 X-6.169 Y-4.68 E.01938
G1 X-6.174 Y-5.256 E.01909
G1 X-6.123 Y-5.859 E.02008
G1 X-6.021 Y-6.412 E.01866
G1 X-5.858 Y-6.985 E.01976
G1 X-5.635 Y-7.547 E.02005
G1 X-5.329 Y-8.134 E.02198
G1 X-4.998 Y-8.635 E.01991
G1 X-4.615 Y-9.104 E.02008
G1 X-4.196 Y-9.526 E.01972
G1 X-3.751 Y-9.894 E.01916
G1 X-3.252 Y-10.231 E.01999
G1 X-2.739 Y-10.51 E.01938
G1 X-2.176 Y-10.746 E.02024
G1 X-1.595 Y-10.925 E.02018
G1 X-.997 Y-11.045 E.02022
G1 X-.403 Y-11.104 E.01981
G1 X.147 Y-11.106 E.01823
G1 X.72 Y-11.056 E.01907
G1 X1.459 Y-10.906 E.02502
G1 X1.912 Y-10.769 E.01571
G1 X2.505 Y-10.523 E.0213
G1 X2.979 Y-10.273 E.01778
G1 X3.498 Y-9.93 E.02062
G1 X4.001 Y-9.517 E.0216
G1 X4.422 Y-9.09 E.01988
G1 X4.808 Y-8.613 E.02036
G1 X5.114 Y-8.153 E.01832
G1 X5.393 Y-7.629 E.01971
G1 X5.665 Y-6.945 E.02441
G1 X5.782 Y-6.558 E.01342
G1 X5.971 Y-5.267 E.04328
G1 X5.97 Y-4.811 E.01513
G1 X5.911 Y-4.154 E.02187
G1 X5.805 Y-3.606 E.01851
G1 X5.652 Y-3.081 E.01814
G1 X5.429 Y-2.521 E.02
G1 X5.129 Y-1.943 E.0216
G1 X4.826 Y-1.481 E.01831
G1 X4.444 Y-1.004 E.0203
G1 X3.999 Y-.551 E.02105
G1 X3.552 Y-.179 E.01928
G1 X3.107 Y.124 E.01786
G1 X2.569 Y.422 E.0204
G1 X2.064 Y.642 E.01827
G1 X1.501 Y.826 E.01968
G1 X.781 Y.976 E.02437
G1 X.381 Y1.024 E.01339
G1 X.334 Y.619 F7200
G1 F1800
G1 X.325 Y.62 E.00031
G1 X-.846 Y.587 E.03886
G1 X-1.266 Y.514 E.01414
G1 X-1.864 Y.355 E.02052
G1 X-2.353 Y.17 E.01735
G1 X-2.818 Y-.058 E.01719
G1 X-3.354 Y-.391 E.02092
G1 X-3.852 Y-.782 E.02101
G1 X-4.227 Y-1.143 E.01727
G1 X-4.563 Y-1.536 E.01713
G1 X-4.922 Y-2.05 E.0208
G1 X-5.217 Y-2.586 E.0203
G1 X-5.419 Y-3.065 E.01725
G1 X-5.577 Y-3.563 E.01733
G1 X-5.701 Y-4.137 E.01949
G1 X-5.765 Y-4.73 E.01978
G1 X-5.769 Y-5.215 E.01609
